dist/svg/static/gas-tank-level-empty-large.svg

<svg xmlns="http://www.w3.org/2000/svg" width="48" height="48" viewBox="0 0 48 48"><g fill="none" stroke="currentColor" stroke-miterlimit="10"><path d="M23 38.5h18M41.5 44.5h-19a2 2 0 0 1-2-2v-36a2 2 0 0 1 2-2h19a2 2 0 0 1 2 2v36a2 2 0 0 1-2 2zM9.5 11.5s-7 13.031-7 18c0 4.969 2 6 2 6s1.09-6 5-6 5 6 5 6 2-.969 2-6-7-18-7-18z"/></g></svg>

<?xml version="1.0" encoding="UTF-8" standalone="no"?>
<svg width="48px" height="48px" viewBox="0 0 48 48" version="1.1" xmlns="http://www.w3.org/2000/svg" xmlns:xlink="http://www.w3.org/1999/xlink">
    <!-- Generator: sketchtool 46.2 (44496) - http://www.bohemiancoding.com/sketch -->
    <title>gas-tank-level-empty-large</title>
    <desc>Created with sketchtool.</desc>
    <defs></defs>
    <g id="icons-published" stroke="none" stroke-width="1" fill="none" fill-rule="evenodd">
        <g id="briefing" transform="translate(-2304.000000, -666.000000)"></g>
        <g id="gas-tank-level-empty-large" stroke="#000000">
            <path d="M23,38.5 L41,38.5 L23,38.5 Z M41.5,44.5 L22.5,44.5 C21.4,44.5 20.5,43.6 20.5,42.5 L20.5,6.5 C20.5,5.4 21.4,4.5 22.5,4.5 L41.5,4.5 C42.6,4.5 43.5,5.4 43.5,6.5 L43.5,42.5 C43.5,43.6 42.6,44.5 41.5,44.5 Z M9.5,11.5 C9.5,11.5 2.5,24.5 2.5,29.5 C2.5,34.5 4.5,35.5 4.5,35.5 C4.5,35.5 5.6,29.5 9.5,29.5 C13.4,29.5 14.5,35.5 14.5,35.5 C14.5,35.5 16.5,34.5 16.5,29.5 C16.5,24.5 9.5,11.5 9.5,11.5 Z" id="Shape"></path>
        </g>
    </g>
</svg>
